client/public/static/images/recipient-collaboration.svg

<svg fill="none" height="37" width="59" xmlns="http://www.w3.org/2000/svg" xmlns:xlink="http://www.w3.org/1999/xlink"><clipPath id="a"><path d="m0 0h16.97v16.97h-16.97z" transform="translate(39.031 10)"/></clipPath><clipPath id="b"><path d="m0 0h13.75v11.25h-13.75z" transform="translate(24.031 15)"/></clipPath><g stroke="#4a5568" stroke-linecap="round" stroke-linejoin="round" stroke-width="1.25"><g clip-path="url(#a)"><path d="m48.93 11.414h-5.657a1.414 1.414 0 0 0 -1.414 1.414v11.313a1.414 1.414 0 0 0 1.414 1.415h8.485a1.414 1.414 0 0 0 1.414-1.415v-8.484z"/><path d="m48.93 11.414v4.242h4.242m-2.824 3.536h-5.657m5.657 2.828h-5.657m1.414-5.657h-1.414"/></g><g clip-path="url(#b)"><path d="m26.532 20.625h10m-3.125-3.281 3.282 3.281-3.282 3.281"/></g><path d="m16.04 24.875v-1.417a2.833 2.833 0 0 0 -2.834-2.833h-5.666a2.833 2.833 0 0 0 -2.833 2.833v1.417m5.664-7.083a2.833 2.833 0 1 0 0-5.667 2.833 2.833 0 0 0 0 5.667zm9.917 7.083v-1.417a2.834 2.834 0 0 0 -2.125-2.741m-2.832-8.5a2.834 2.834 0 0 1 0 5.49"/></g></svg>

<svg width="59" height="37" fill="none" xmlns="http://www.w3.org/2000/svg"><g clip-path="url(#a)" stroke="#4A5568" stroke-width="1.25" stroke-linecap="round" stroke-linejoin="round"><path d="M48.93 11.414h-5.657a1.414 1.414 0 0 0-1.414 1.414v11.313a1.414 1.414 0 0 0 1.414 1.415h8.485a1.414 1.414 0 0 0 1.414-1.415v-8.484l-4.242-4.243z"/><path d="M48.93 11.414v4.242h4.242M50.348 19.192h-5.657M50.348 22.02h-5.657M46.105 16.363h-1.414"/></g><g clip-path="url(#b)" stroke="#4A5568" stroke-width="1.25" stroke-linecap="round" stroke-linejoin="round"><path d="M26.532 20.625h10M33.407 17.344l3.282 3.281-3.282 3.281"/></g><path d="M16.04 24.875v-1.417a2.833 2.833 0 0 0-2.834-2.833H7.54a2.833 2.833 0 0 0-2.833 2.833v1.417M10.371 17.792a2.833 2.833 0 1 0 0-5.667 2.833 2.833 0 0 0 0 5.667zM20.288 24.875v-1.417a2.834 2.834 0 0 0-2.125-2.741M15.331 12.217a2.834 2.834 0 0 1 0 5.49" stroke="#4A5568" stroke-width="1.25" stroke-linecap="round" stroke-linejoin="round"/><defs><clipPath id="a"><path fill="#fff" transform="translate(39.031 10)" d="M0 0h16.97v16.97H0z"/></clipPath><clipPath id="b"><path fill="#fff" transform="translate(24.031 15)" d="M0 0h13.75v11.25H0z"/></clipPath></defs></svg>
